X:079
T:And Keep your Hair Dry TS.079
M:C|
L:1/8
Q:1/2=80
S:Thomas Sands’ MS,1810,Lincolnshire
R:reel
O:England;Lincolnshire
Z:vmp.Ruairidh Greig, 2011
K:A
“as writ”e|c>ef>ge2c2|dBfB aBfB|c>ef>ae2c2|A2aaga AA:|
|:e|c2A A>AA cA|cAB2E E>EE|BEBEc2AA|AA cAcAA2|aagaA2A2:|]

